packages/icons/svg/32/BookmarkOff.svg

<svg width="32" height="32" viewBox="0 0 32 32" fill="none" xmlns="http://www.w3.org/2000/svg">
<path fill-rule="evenodd" clip-rule="evenodd" d="M7 9V27.24L16 22.74L25 27.24V9C25 7.34315 23.6569 6 22 6H10C8.34315 6 7 7.34315 7 9ZM9 24V9C9 8.44772 9.44772 8 10 8H22C22.5523 8 23 8.44772 23 9V24L16 20.5L9 24Z" fill="#858585"/>
</svg>

<svg width="32" height="32" fill="none" xmlns="http://www.w3.org/2000/svg" viewBox="0 0 32 32"><path fill-rule="evenodd" clip-rule="evenodd" d="M7 9v18.24l9-4.5 9 4.5V9a3 3 0 00-3-3H10a3 3 0 00-3 3zm2 15V9a1 1 0 011-1h12a1 1 0 011 1v15l-7-3.5L9 24z" fill="currentColor"></path></svg>
